X:3
T:ROWLEY
M:3/4
L:1/8
B:The New Harp of Columbia (1867; facsimile edition, U. of Tennessee Pr., 2001, p. 144)
K:G
(G3/2 A/)|B2 A2 G2|d4 (B3/2 d/)|c2 B2 A2|B4 (d3/2 d/)|
w:Come a-way to the skies, My be-lov-ed a-rise, And re-
d2 B2 d2|d2 c2 B2|A4 (A3/2 A/)|A2 B2 c2|B4 (A3/2 A/)|
w:joice in the day thou wast born. On this fest-tiv-al day Come ex-
B2 B2 c2|d4 (d3/2 d/)|d2 B2 d2|d2 c2 B2|A4 (d3/2 d/)|
w:ult-ing a-way, And with sing-ing to Zi-on re-turn, And with
d2 B2 d2|c2 B2 A2|G4|]
w:sing-ing to Zi-on re-turn.
Contact us
suse.folkinfo.org
